X:1
T:For Erik
T:Fur Ludwig, Op. 4
T:Paige Youden 
%%score { 1 | 2 }
L:1/8
Q:1/4=80
M:4/4
K:C
V:1 treble nm="Piano" snm="Pno."
V:2 bass 
V:1
 ee^de z dBe | ^dBAG EC z2 | GEC z GEC z | FDC z FDC z | EGAB ^dede | ^dBAG FB, z2 | FB, z2 F2 z2 | %7
 GEC z GEC z | FB, z2 [CF][B,F] z2 | GEC z AEC z | AEC z cEC z | DB, z2 GB, z2 | z8 | EGAB ^dede | %14
 ^dBAG FB, z2 | C z z2 C z z2 | FB, z2 FB, z2 | F8 | z8 | C z F z A z c z | z8 | ecAe cAEC | z8 | %23
 dBAd BADB, | z8 | cAFc AFCA, | z8 | e z Ae z AEC | z8 | e z Fc z GEC | z8 | z8 | z4 F4 | z4 D4 | %34
 !fermata!C8 | A2 A2 A2 F2 | F2 F2 D2 D2 | D2 z2 z4 | z8 | z8 | F2 z2 D2 F2 | [Fd]2 A2 c2 f2 | z8 | %43
 F2 z2 C2 F2 | [Ee]2 G2 B2 e2 | z8 | z8 | e2 c2 A2 [Fd]2 | F2 D2 z2 F2 | z8 | e2 B2 G2 [Ec]2 | %51
 F2 C2 z2 F2 | z8 | z8 | z8 | z8 | z8 | !fermata!C8 | z8 | dede z dBe | edec e2 c2 | e2 c2 A2 F2 | %62
 AF B2 F z c2 | e2 F2 c z A2 | A z z2 F2 F2 | G z A2 c2 z2 | z8 | z8 | c2 z2 z4 | z8 | z4 F2 z2 | %71
 e2 d2 B2 F2 | AF c2 A z c2 | e2 A2 d z A2 | F z ec F2 F2 | G z A2 c2 z2 | z8 | z8 | C8 | z8 | z8 | %81
 !fermata!C8 |] %82
V:2
 z8 | z4 z2 G,2 | z z2 [G,C] z z2 [G,C] | z4 z2 A,2 | z8 | z4 z2 G,2 | G, z G,2 D, z G,2 | %7
 G, z2 [G,C] G, z2 [G,C] | G, z G,2 D, z G,2 | G, z2 [G,C] C, z2 [G,C] | G, z2 [G,C] G, z2 [G,C] | %11
 G, z F,2 G, z F,2 | F,2 F,2 D,2 C,2 | z8 | z4 G, z G,2 | G,2 G,2 G,2 z2 | D, z G,2 D, z G,2 | %17
 G,2 G,2 G,2 z2 | DB,A,G, F,B,,A,, z | G, z CG, CE,D,B,, | [A,,C,E,]8 | [B,,D,F,]8 | [A,,C,E,]8 | %23
 [G,,B,,D,]8 | [A,,C,E,]8 | z8 | [G,,B,,D,]8 | [A,,C,E,]8 | [G,,B,,D,]8 | z8 | [A,,C,E,]8 | %31
 [G,,B,,D,]8 | [D,,F,,A,,]8 | [B,,,D,,F,,]8 | !fermata![A,,,C,,E,,]8 | z8 | z8 | z2 B,2 B,2 B,2 | %38
 !fermata!G,8 | A,,2 C,2 E,2 G,2 | G,2 B,2 z4 | z8 | [G,,E,]2 B,,2 D,2 F,2 | F,2 A,2 z4 | z8 | %45
 [A,,C,E,]8 | [G,,B,,D,]8 | z8 | z4 B,2 G,2 | G,2 E,2 C,2 A,,2 | z8 | z4 A,2 F,2 | %52
 F,2 D,2 B,,2 [G,,F,]2 | [A,,C,E,]8 | [G,,B,,D,]8 | [E,,G,,B,,]8 | [D,,F,,A,,]8 | %57
 !fermata![A,,,C,,E,,]8 | [A,,C,E,]8 | z8 | z8 | C4 z4 | C,4 z4 | C4 z4 | C,4 C4 | z8 | %66
 E2 C2 A,2 F,2 | A,F, C2 F, z C2 | A,2 G,2 C z A,2 | A, z z2 F,2 F,2 | G,2 A,2 C2 z2 | z8 | z4 C4 | %73
 z4 G,4 | z4 C4 | C2 G,2 C2 B,2 | [A,,C,E,]8 | [B,,D,F,]8 | [A,,C,E,]8 | [G,,B,,D,]8 | %80
 [C,,A,,C,]8 | !fermata![A,,,C,,E,,]8 |] %82

